X:1
T:Ave Regina Coelorum
T:Adrian Willaert
T:Ave Regina Coelorum
C:Adrian Willaert
%%score [ 1 2 3 4 ]
L:1/8
Q:1/2=100
M:4/2
K:C
V:1 treble nm="Soprano" snm="S."
V:2 treble nm="Alto" snm="A."
V:3 treble-8 transpose=-12 nm="Tenor" snm="T."
V:4 bass nm="Bass" snm="B."
V:1
 z16 | z16 | z16 | z16 | E16 | G8 G8 | A16 | G8 E8 | F16 | E8 z4 E4 | G8 G8 | A8 A8- | A4 G4 c8- | %13
w: ||||A-|ve re-|gi-|na cae-|lo-|rum, Ma-|ter re-|gis an-|* ge- lo-|
 c4 B2 A2 B8 | A16 | z16 | z16 | z16 | z16 | A16 | F8 G8 | A16 | G8 G4 A4- | A2 G2 F2 E2 F8 | %24
w: |rum,|||||A-|ve stel-|la|ma- tu- ti-||
 E8 A8 | F8 G8 | A16 | G8 G4 A4- | A2 G2 F2 E2 F8 | E4 c8 B2 A2 | B4 A8 G4 | A12 G2 F2 | G4 F4 E8 | %33
w: na, Dux|su- a-|vis|et be- ni-||gna, et _ _|_ be- *|ni- * *|* * gna,|
 z4 F8 E4- | E4 D8 ^C4 | D8 z8 | z16 | z16 | z4 d8 d4 | c8 A4 B4 | c12 B4- | B2 A2 A8 G4 | A8 z8 | %43
w: et be-|* ni- *|gna.|||O Ma-|ri- a, flos|vir- *|* * * gi-|num,|
 z4 A4 G8 | F8 D6 E2 | F12 E4- | E2 D2 D8 !courtesy!^C4 | D8 z8 | z16 ||[M:3/2] d8 B4 | c4 A6 B2 | %51
w: vel- ut|ro- sa _|vel- li-|* * * li-|um:||fun- de|pre- ces _|
 c4 B6 A2 | A8 G4 | A8 z4 | G8 E4 | F4 D6 E2 | F4 E6 D2 | D8 !courtesy!^C4 | D4 F4 G4- | G4 A8 | %60
w: ad Fi- *|* li-|um|pro sa-|lu- te _|fi- de- *|* li-|um, pro sa-|* lu-|
 D8 z4 | z12 ||[M:4/2] E16 | G16 | A16 | G8 E8 | F8 F8 | E16 | z8 E8 | C6 D2 E4 F4- | F4 E4 D8 | %71
w: te,||pro|sa-|lu-|te fi-|de- li-|um,|fi-|de- * * *|* * li-|
 !courtesy!^C16 |] %72
w: um.|
V:2
 z16 | z16 | z16 | z16 | z16 | z16 | A,16 | C8 C8 | D16 | C8 A,8 | B,16 | A,8 z4 A,4 | C8 C8 | %13
w: ||||||A-|ve re-|gi-|na cae-|lo-|rum, Ma-|ter re-|
 D8 D8- | D4 C4 F8- | F4 E2 D2 E8 | D16 | z16 | z16 | z16 | z16 | D16 | B,8 C8 | D16 | C8 C4 D4- | %25
w: gis an-|* ge- lo-||rum,|||||A-|ve stel-|la|ma- tu- ti-|
 D2 C2 B,2 A,2 B,8 | A,8 D8 | B,8 C8 | D16 | C8 C4 D4- | D2 C2 B,2 A,2 B,8 | C4 F8 E2 D2 | %32
w: |na,, Dux|su- a-|vis|et be- ni-||gna, et _ _|
 E4 D8 !courtesy!^C4 | D12 C2 B,2 | C4 B,4 A,8 | z4 B,8 A,4- | A,4 G,8 ^F,4 | G,8 z8 | z16 | z16 | %40
w: _ be- *|ni- * *|* * gna,|et be-|* ni- *|gna.|||
 z4 G8 G4 | F8 D4 E4 | F12 E4- | E2 D2 D8 C4 | D8 z8 | z4 D4 C8 | B,8 G,6 A,2 | B,12 A,4- | %48
w: O Ma-|ri- a, flos|vir- *|* * * gi-|num,|vel- ut|ro- sa _|vel- li-|
 A,2 G,2 G,8 ^F,4 ||[M:3/2] G,8 z4 | z12 | G8 E4 | F4 D6 E2 | F4 E6 D2 | D8 !courtesy!^C4 | D8 z4 | %56
w: * * * li-|um:||fun- de|pre- ces _|ad Fi- *|* li-|um|
 C8 A,4 | B,4 G,6 A,2 | !courtesy!_B,4 A,6 G,2 | G,8 ^F,4 | G,4 B,4 C4- | C4 D8 ||[M:4/2] G,8 z8 | %63
w: pro sa-|lu- te _|fi- de- *|* li-|um, pro sa-|* lu-|te,|
 z16 | A,16 | C16 | D16 | C8 A,8 | B,8 B,8 | A,16- | A,16- | A,16 |] %72
w: |pro|sa-|lu-|te fi-|de- li-|um.|_||
V:3
 B16 | d8 d8 | e16 | d8 B8 | c16 | B12 e4- | e4 d2 c2 d8 | e16 | A16 | A8 c8 | d8 d8- | d4 c4 f8 | %12
w: A-|ve re-|gi-|na cae-|lo-|rum, cae-|* * * lo-|rum,|Ma-|ter re-|gis an-|* ge- lo-|
 e8 z4 E4 | G8 G8 | A8 A8- | A4 G4 c8- | c4 B2 A2 B8 | z4 e4 c8 | d8 e8 | c8 c4 d4- | %20
w: rum, Ma-|ter re-|gis an-|* ge- lo-|* * * rum,|A- ve|stel- la|ma- tu- ti-|
 d2 c2 B2 A2 B4 c4 | F8 z8 | G8 E8 | F6 G2 A8- | A8 F8- | F4 D4 D6 E2 | F4 f8 f4 | e12 A4 | A16 | %29
w: |na,|Dux su-|a- * vis|_ et|_ be ni- *|gna, et be-|ni- *|gna,|
 z4 A8 F4 | G4 A4 E8 | F6 G2 A8 | z8 A8- | A4 G2 F2 A4 G4- | G4 F4 E8 | D4 d8 d4 | c8 A4 B4 | %37
w: et be-|ni- * *|gna, _ _|et|_ _ _ _ be-|* * ni-|gna. O Ma-|ri- a, flos|
 c12 B4- | B2 A2 A8 ^G4 | A4 A4 c4 d4 | e8 e8 | d6 c2 B4 B4 | A4 d8 c4 | B4 A4 B4 G4 | %44
w: vir- *|* * * gi-|num, O Ma- ri-|a, flos|vir- * * gi-|num, vel- ut|ro- * sa ve-|
 A8 !courtesy!_B8 | A8 z8 | z16 | z8 z4 d4- | d4 B4 c4 A4 ||[M:3/2] B6 c2 d4 | e4 c4 d4 | e8 c4 | %52
w: li- li-|um:||fun-|* de pre- ces|ad _ _|Fi- * *||
 d4 B8 | A8 A4 | B4 G8 | A4 F4 G4 | A6 G2 F4 | G4 E8 | D8 d4 | e4 c8 | B4 d6 c2 | c8 B4 || %62
w: * li-|um pro|sa- lu-|te _ fi-|de- * *|* li-|um, pro|sa- lu-|te fi- *|de- li-|
[M:4/2] c16 | z4 G4 B8 | d8 c8 | z4 c4 G8 | _B8 A8- | A4 A4 c6 =BA | G4 A8 ^G4 | A4 c6 B2 A4- | %70
w: um,|pro sa-|lu- te|fi- de-|li- um,|_ fi- de- * *|* * li-|um, fi- * de-|
 A2 G2 E4 F8 | E16 |] %72
w: * * * li-|um.|
V:4
 z16 | z16 | E,16 | G,8 G,8 | A,16 | G,8 E,8 | F,16 | C,8 E,8 | D,16 | z8 A,8 | G,8 G,8 | %11
w: ||A-|ve re-|gi-|na cae-|lo-||rum,|Ma-|ter re-|
 F,6 E,2 D,8 | C,6 B,,2 A,,8 | G,,8 z4 G,4 | F,6 E,2 D,8 | C,8 z4 A,4 | F,8 G,8 | A,16 | %18
w: gis _ _|an- ge- lo-|rum, an-|ge- * lo-|rum, A-|ve stel-|la|
 G,8 G,4 A,4- | A,2 G,2 F,2 E,2 F,8 | D,6 F,2 E,8 | D,16 | E,8 C,4 A,,4 | D,16 | z8 z4 D,4- | %25
w: ma- tu- ti-|||na,|ma- tu- ti-|na,|Dux|
 D,4 D,4 G,,8 | D,16 | E,8 E,4 F,4- | F,2 E,2 D,2 C,2 D,8 | A,,8 z8 | z16 | z4 D,8 D,4 | %32
w: _ su- a|vis|et be- ni-||gna,||et be-|
 C,4 D,4 A,,8 | D,12 E,4 | C,4 D,4 A,,8 | D,8 z4 F,4- | F,4 C,4 D,8 | C,8 E,8 | D,6 C,2 B,,4 B,,4 | %39
w: ni- * gna,|et be-|ni- * *|gna, O|_ Ma- ri-|a, flos|vir- * * gi-|
 A,,4 F,8 E,2 D,2 | C,8 z8 | z4 D,4 G,8 | F,4 D,4 A,8 | G,4 F,4 E,8 | D,4 D,4 G,8 | F,4 D,4 A,8 | %46
w: num, _ _ _|_|O Ma-|ri- a, flos|vir- * gi-|num, vel- ut|ro- sa vel-|
 G,6 F,2 E,4 E,4 | D,4 G,8 !courtesy!^F,4 | G,4 G,,4 A,,8 ||[M:3/2] G,,4 G,8 | E,4 F,8 | E,8 A,4 | %52
w: li- * * li-|um, li- *|* * li-|um: fun-|de pre-|ces, fun-|
 F,4 G,8 | D,4 A,4 F,4 | G,4 E,8 | D,6 C,2 B,,4 | A,,8 z4 | z12 | z4 D,4 B,,4 | C,4 A,,8 | %60
w: de pre-|ces ad Fi-||li- * *|um||pro sa-|lu- *|
 G,,4 G,4 E,4 | F,4 D,8 ||[M:4/2] C,8 z4 C,4 | E,8 G,8 | F,8 z4 F,4 | C,8 E,8 | D,16 | A,,12 A,,4 | %68
w: te fi- de-|* li-|um, pro|sa- lu-|te fi-|de- li-|um,|pro sa-|
 E,8 E,8 | F,6 E,D, C,4 D,4- | D,4 !courtesy!^C,4 D,8 | A,,16 |] %72
w: lu- te|fi- * * * de-|* * li-|um.|

